!! 00000] TT[WS
!!!OTL: Jianjian hau
!!!ARE: Asia, China,ÿShanxi Heshun
!! Ethnic Group: Han
!! WI, 226 (1)
!!!SCT: J0270
!!!YEM: Copyright 1995, estate of Helmut Schaffrath.
**kern
*ICvox
*Ivox
*M2/4
*k[b-]
*F:
{8.cc
16dd
4ff
=1
8gg
8ee
8dd
8cc
=2
8dd
8b-
8a
8g
=3
2cc}
=4
{8.cc
16dd
4ff
=5
8gg
8ee
8dd
8cc
=6
8dd
8b-
8a
8g
=7
2cc}
=8
{8.cc
16dd
4ff
=9
8gg
8ee
8dd
8cc
=10
8.a
16cc
8dd
8ff
=11
8cc
8dd
8b-
8a}
=12
{8.g
16a
8cc
8ff
=13
8dd
8cc
8a
8g
=14
8a
8b-
8a
8g
=15
2f}
=16
{8.dd
16cc
8dd
8ff
=17
8cc
8dd
8b-
8a
=18
8.g
16a
8cc
8ff
=19
8dd
8cc
8a
8g
=20
8a
8b-
8a
8g
=21
4f
4r}
==
!!!AGN: Xiaodiao. Qingge
!!!ONB: ESAC (Essen Associative Code) Database: CHINA
!!!AMT: simple duple
!!!AIN: vox
!!!EED: Helmut Schaffrath
!!!EEV: 1.0
*-
